client/public/assets/icons/standard/channel_program_levels.svg

<?xml version="1.0"?><svg xmlns="http://www.w3.org/2000/svg" width="100" height="100" viewBox="0 0 100 100"><g fill="#fff"><path d="m77.9 47.2l-3.7-1.7c-0.5-0.3-1.2-0.3-1.7 0l-11 5.3c1.8-0.6 3.7-0.9 5.6-0.9 3.1 0 6 0.8 8.6 2.2l2.1-1c1.7-0.9 1.7-3.1 0.1-3.9z m-57.7-10.3l26.8 12.7c1.2 0.6 2.7 0.6 3.9 0l26.9-12.7c1.6-0.8 1.6-2.9 0-3.7l-26.9-12.7c-1.2-0.6-2.7-0.6-3.9 0l-26.8 12.8c-1.7 0.7-1.7 2.9 0 3.6z m0 14l26.8 12.8c0.7 0.4 1.5 0.5 2.3 0.4 1-4.8 3.9-8.8 7.9-11.4l-6.2 3c-1.2 0.6-2.7 0.6-3.9 0l-21.5-10.2c-0.5-0.3-1.2-0.3-1.7 0l-3.7 1.7c-1.7 0.8-1.7 2.9 0 3.7z m28.8 19.3c-0.7 0-1.3-0.2-1.9-0.4l-21.6-10.3c-0.5-0.3-1.2-0.3-1.7 0l-3.6 1.7c-1.6 0.8-1.6 2.9 0 3.7l26.8 12.8c1.2 0.6 2.7 0.6 3.9 0l0.6-0.3c-1.3-2.2-2.2-4.6-2.5-7.2z"></path></g><path fill="#fff" d="m67.2 56.2c-6.5 0-11.9 5.3-11.9 11.9s5.3 11.9 11.9 11.9 11.9-5.3 11.9-11.9-5.4-11.9-11.9-11.9z m9.4 10.7h-3.1c-0.1-2.8-0.8-5.3-1.7-7.1 2.6 1.5 4.4 4.1 4.8 7.1z m-10.6-7.8v7.8h-2.7c0.2-3.7 1.3-6.6 2.7-7.8z m0 10.2v7.8c-1.3-1.1-2.5-4.1-2.7-7.8h2.7z m2.4 7.8v-7.8h2.7c-0.2 3.7-1.4 6.7-2.7 7.8z m0-10.2v-7.8c1.3 1.1 2.5 4.1 2.7 7.8h-2.7z m-5.8-7.1c-1 1.9-1.5 4.3-1.7 7.1h-3.1c0.3-3 2.2-5.6 4.8-7.1z m-4.8 9.5h3.1c0.1 2.8 0.8 5.3 1.7 7.1-2.6-1.4-4.5-4-4.8-7.1z m14 7.1c1-1.9 1.5-4.3 1.7-7.1h3.1c-0.4 3.1-2.2 5.7-4.8 7.1z"></path></svg>

<?xml version="1.0" encoding="utf-8"?>
<!-- Generator: Adobe Illustrator 21.1.0, SVG Export Plug-In . SVG Version: 6.00 Build 0)  -->
<svg version="1.1" id="Layer_1" xmlns="http://www.w3.org/2000/svg" xmlns:xlink="http://www.w3.org/1999/xlink" x="0px" y="0px"
	 width="100px" height="100px" viewBox="0 0 100 100" enable-background="new 0 0 100 100" xml:space="preserve">
<g>
	<path fill="#FFFFFF" d="M77.9,47.2l-3.7-1.7c-0.5-0.3-1.2-0.3-1.7,0l-11,5.3c1.8-0.6,3.7-0.9,5.6-0.9c3.1,0,6,0.8,8.6,2.2l2.1-1
		C79.5,50.2,79.5,48,77.9,47.2z"/>
	<path fill="#FFFFFF" d="M20.2,36.9L47,49.6c1.2,0.6,2.7,0.6,3.9,0l26.9-12.7c1.6-0.8,1.6-2.9,0-3.7L50.9,20.5
		c-1.2-0.6-2.7-0.6-3.9,0L20.2,33.3C18.5,34,18.5,36.2,20.2,36.9z"/>
	<path fill="#FFFFFF" d="M20.2,50.9L47,63.7c0.7,0.4,1.5,0.5,2.3,0.4c1-4.8,3.9-8.8,7.9-11.4l-6.2,3c-1.2,0.6-2.7,0.6-3.9,0
		L25.6,45.5c-0.5-0.3-1.2-0.3-1.7,0l-3.7,1.7C18.5,48,18.5,50.1,20.2,50.9z"/>
	<path fill="#FFFFFF" d="M49,70.2c-0.7,0-1.3-0.2-1.9-0.4L25.5,59.5c-0.5-0.3-1.2-0.3-1.7,0l-3.6,1.7c-1.6,0.8-1.6,2.9,0,3.7
		L47,77.7c1.2,0.6,2.7,0.6,3.9,0l0.6-0.3C50.2,75.2,49.3,72.8,49,70.2z"/>
</g>
<path fill="#FFFFFF" d="M67.2,56.2c-6.5,0-11.9,5.3-11.9,11.9S60.6,80,67.2,80s11.9-5.3,11.9-11.9S73.7,56.2,67.2,56.2z M76.6,66.9
	h-3.1c-0.1-2.8-0.8-5.3-1.7-7.1C74.4,61.3,76.2,63.9,76.6,66.9z M66,59.1v7.8h-2.7C63.5,63.2,64.6,60.3,66,59.1z M66,69.3v7.8
	c-1.3-1.1-2.5-4.1-2.7-7.8H66z M68.4,77.1v-7.8h2.7C70.9,73,69.7,76,68.4,77.1z M68.4,66.9v-7.8c1.3,1.1,2.5,4.1,2.7,7.8H68.4z
	 M62.6,59.8c-1,1.9-1.5,4.3-1.7,7.1h-3.1C58.1,63.9,60,61.3,62.6,59.8z M57.8,69.3h3.1c0.1,2.8,0.8,5.3,1.7,7.1
	C60,75,58.1,72.4,57.8,69.3z M71.8,76.4c1-1.9,1.5-4.3,1.7-7.1h3.1C76.2,72.4,74.4,75,71.8,76.4z"/>
</svg>
